X: 1
T: Contentment Is Wealth
R: jig
M: 6/8
L: 1/8
K: Edor
|:f|~g3 edB|BAB EFG|~F3 DFA|dAF AFD|
~g3 edB|BAB EGA|~B3 AGF|GED E2:|
|:B|ege Beg|bge gfe|~d3 Adf|afd fed|
ege Beg|bge gfe|~B3 AGF|GED E2:|


Tune 1662	Setting 20808

